icons/linear-new-symbol-arrow-down-download-rectangle.svg

<svg xmlns="http://www.w3.org/2000/svg" width="32px" height="32px" viewBox="0 0 32 32" version="1.1">
    <title>linear-new-symbol-arrow-down-download-rectangle</title>
    <g id="linear-new-symbol-arrow-down-download-rectangle" stroke-width="1" fill-rule="evenodd">
        <path d="M10,11 L10,13 L5,13 L5,27 L27,27 L27,13 L22,13 L22,11 L28,11 C28.5522847,11 29,11.4477153 29,12 L29,28 C29,28.5522847 28.5522847,29 28,29 L4,29 C3.44771525,29 3,28.5522847 3,28 L3,12 C3,11.4477153 3.44771525,11 4,11 L10,11 Z M16,3 C16.5522847,3 17,3.44771525 17,4 L17,20.585 L21.2928932,16.2928932 C21.6533772,15.9324093 22.2206082,15.9046797 22.6128994,16.2097046 L22.7071068,16.2928932 C23.0976311,16.6834175 23.0976311,17.3165825 22.7071068,17.7071068 L16.7071068,23.7071068 C16.3165825,24.0976311 15.6834175,24.0976311 15.2928932,23.7071068 L9.29289322,17.7071068 C8.90236893,17.3165825 8.90236893,16.6834175 9.29289322,16.2928932 C9.68341751,15.9023689 10.3165825,15.9023689 10.7071068,16.2928932 L15,20.585 L15,4 C15,3.44771525 15.4477153,3 16,3 Z" id="&#24418;&#29366;" fill-rule="nonzero" />
    </g>
</svg>

<svg xmlns="http://www.w3.org/2000/svg" viewBox="0 0 32 32"><path fill="currentColor" d="M10 11v2H5v14h22V13h-5v-2h6a1 1 0 0 1 1 1v16a1 1 0 0 1-1 1H4a1 1 0 0 1-1-1V12a1 1 0 0 1 1-1zm6-8a1 1 0 0 1 1 1v16.585l4.293-4.292a1 1 0 0 1 1.32-.083l.094.083a1 1 0 0 1 0 1.414l-6 6a1 1 0 0 1-1.414 0l-6-6a1 1 0 0 1 1.414-1.414L15 20.585V4a1 1 0 0 1 1-1"/></svg>
